X: 182
T:Can The ! Jirrioii
% Nottingham Music Database
S:Trad, arr Phil RowB
M:6/8
K:G
F|A2B c2e|"D"f2=d ff|"D"def bfe|"G"ddd "D7"cec|"D"d2f "G7"edc|\
"D"f2f s2f|"D"fgd "A7"c2e|
"A"e2f e2f|"D#"fed Adf|"D"fg f|"A"efe "E7"e2g|
"A"f2g "E"feB|"A"c3 c2:|[2G/2c/2|"A"a2e "D7"dcA|"G"BAG BAB|"Am"c2c "D7"efg|\
"D""F"f2f fed|\
P:"D"f2c "A7"eBA|\
"Bm"d2f "E7"ec2|"A"e3 "D7"f2g|"A"e3 "A7/e+"f3|"Am"aee B2c|"D7"d2c "A"c2:|[2"Em"gee e3|
"E"eee "g"efe|"D"Bcf "A7"efg|"D"faa "A7"A2/2c/2|"A"c2e "G#b"d3g|
"C"g2z "Em"
3:"Fm"e2B d3|"A""m"g2a "E7"f3|"Am"c2g gfe|1
"Em"a3 fef|"D"afa dfe|"D#m"ccB "Bmgb"fef|
"D"fag agg|"G"bgf "D"fed|"A"agf edc|"D7"fgf "E7"gaf|"Am"efg "A7"gag|\
"A"e3 "A"edc|"Em"g3 "E7"g2d|"G"f2B "A7"A2G|"G"GBd gdB|"G"BdB GAG|"Gm"C2g f3||


